; generated by PrusaSlicer 2.6.1+win64 on 2023-10-13 at 08:43:36 UTC

; 

; external perimeters extrusion width = 0.45mm
; perimeters extrusion width = 0.45mm
; infill extrusion width = 0.45mm
; solid infill extrusion width = 0.45mm
; top infill extrusion width = 0.40mm
; support material extrusion width = 0.35mm
; first layer extrusion width = 0.42mm

M73 P0 R80
M73 Q0 S80
M201 X1000 Y1000 Z200 E5000 ; sets maximum accelerations, mm/sec^2
M203 X200 Y200 Z12 E120 ; sets maximum feedrates, mm / sec
M204 S1250 T1250 ; sets acceleration (S) and retract acceleration (R), mm/sec^2
M205 X8.00 Y8.00 Z0.40 E4.50 ; sets the jerk limits, mm/sec
M205 S0 T0 ; sets the minimum extruding and travel feed rate, mm/sec
;TYPE:Custom
M862.3 P "MK3S" ; printer model check
M862.1 P0.4 ; nozzle diameter check
M115 U3.10.1 ; tell printer latest fw version
G90 ; use absolute coordinates
M83 ; extruder relative mode
M104 S255 ; set extruder temp
M140 S80 ; set bed temp
M190 S80 ; wait for bed temp
M109 S255 ; wait for extruder temp
G28 W ; home all without mesh bed level
G80 ; mesh bed leveling
G1 Z0.2 F720
G1 Y-3 F1000 ; go outside print area
G92 E0
G1 X60 E9 F1000 ; intro line
G1 X100 E12.5 F1000 ; intro line
G92 E0
M221 S95

; Don't change E values below. Excessive value can damage the printer.

M907 E538 ; set extruder motor current
G21 ; set units to millimeters
G90 ; use absolute coordinates
M83 ; use relative distances for extrusion
M900 K0.08 ; Filament gcode LA 1.5
M900 K45 ; Filament gcode LA 1.0
M107
;LAYER_CHANGE
;Z:0.2
;HEIGHT:0.2
;BEFORE_LAYER_CHANGE
G92 E0.0
;0.2


G1 E-1 F2100
M73 P0 R79
G1 Z.2 F720
;AFTER_LAYER_CHANGE
;0.2
G1 Z.4
G1 X103.419 Y81.407 F10800
G1 Z.2 F720
G1 E1 F2100
M204 S800
;TYPE:Skirt/Brim
;WIDTH:0.42
G1 F1200
G1 X106.407 Y78.419 E.13249
G1 X108.088 Y77.723 E.05705
G1 X141.912 Y77.723 E1.06053
G1 X143.593 Y78.419 E.05705
G1 X146.581 Y81.407 E.13249
G1 X147.277 Y83.088 E.05705
G1 X147.277 Y126.912 E1.37407
G1 X146.581 Y128.593 E.05705
G1 X143.593 Y131.581 E.13249
G1 X141.912 Y132.277 E.05705
G1 X108.088 Y132.277 E1.06053
G1 X106.407 Y131.581 E.05705
G1 X103.419 Y128.593 E.13249
G1 X102.723 Y126.912 E.05705
G1 X102.723 Y83.088 E1.37407
G1 X103.396 Y81.462 E.05518
M204 S1000
;WIPE_START
M73 Q0 S79
G1 F8640
G1 X106.407 Y78.419 E-.98847
G1 X106.453 Y78.4 E-.01153
;WIPE_END
G1 Z.4 F720
G1 X106.045 Y82.781 F10800
G1 Z.2 F720
G1 E1 F2100
M204 S800
G1 F1200
G1 X106.159 Y82.55 E.00808
G1 X107.096 Y81.519 E.04368
G1 X107.781 Y81.011 E.02674
G1 X109.753 Y80.386 E.06486
G1 X140.189 Y80.39 E.9543
G1 X141.21 Y80.584 E.03259
G1 X142.188 Y81 E.03332
G1 X143.312 Y81.896 E.04507
G1 X144.205 Y83.234 E.05044
G1 X144.613 Y84.779 E.0501
G1 X144.613 Y125.218 E1.26794
G1 X144.299 Y126.53 E.0423
G1 X143.841 Y127.45 E.03222
G1 X142.904 Y128.481 E.04368
G1 X142.219 Y128.989 E.02674
G1 X140.247 Y129.613 E.06485
G1 X109.782 Y129.613 E.95521
G1 X108.47 Y129.299 E.0423
G1 X107.55 Y128.841 E.03222
G1 X106.519 Y127.904 E.04368
G1 X106.011 Y127.219 E.02674
G1 X105.387 Y125.247 E.06485
G1 X105.387 Y84.782 E1.26875
G1 X105.701 Y83.47 E.0423
G1 X106.018 Y82.834 E.02228
M204 S1000
G1 X106.353 Y83.003 F10800
M204 S800
G1 F1200
G1 X106.484 Y82.744 E.0091
G1 X107.361 Y81.788 E.04068
G1 X107.979 Y81.334 E.02404
G1 X109.782 Y80.764 E.05929
G1 X140.171 Y80.767 E.95283
G1 X141.117 Y80.95 E.03021
G1 X142.015 Y81.336 E.03065
G1 X143.053 Y82.171 E.04177
G1 X143.849 Y83.362 E.04492
G1 X144.236 Y84.804 E.04681
G1 X144.236 Y125.195 E1.26643
G1 X143.938 Y126.419 E.0395
G1 X143.516 Y127.257 E.02942
G1 X142.639 Y128.212 E.04065
G1 X142.021 Y128.666 E.02404
G1 X140.218 Y129.236 E.05929
G1 X109.805 Y129.236 E.95358
G1 X108.581 Y128.938 E.0395
G1 X107.744 Y128.516 E.02939
G1 X106.788 Y127.639 E.04068
G1 X106.334 Y127.021 E.02404
G1 X105.764 Y125.218 E.05929
G1 X105.764 Y84.805 E1.26712
G1 X106.062 Y83.581 E.0395
G1 X106.326 Y83.057 E.0184
M204 S1000
G1 X106.66 Y83.227 F10800
M204 S800
G1 F1200
G1 X106.807 Y82.939 E.01014
G1 X107.624 Y82.059 E.03765
G1 X108.176 Y81.656 E.02143
G1 X109.811 Y81.141 E.05375
G1 X140.152 Y81.144 E.95132
G1 X141.024 Y81.316 E.02787
G1 X141.84 Y81.671 E.0279
G1 X142.793 Y82.445 E.03849
G1 X143.517 Y83.543 E.04124
G1 X143.859 Y84.828 E.04169
G1 X143.859 Y125.171 E1.26493
G1 X143.577 Y126.306 E.03667
G1 X143.193 Y127.061 E.02656
G1 X142.376 Y127.941 E.03765
G1 X141.824 Y128.344 E.02143
G1 X140.189 Y128.859 E.05375
G1 X109.829 Y128.859 E.95192
G1 X108.694 Y128.577 E.03667
G1 X107.939 Y128.193 E.02656
G1 X107.059 Y127.376 E.03765
G1 X106.656 Y126.824 E.02143
G1 X106.141 Y125.189 E.05375
G1 X106.141 Y84.829 E1.26546
G1 X106.423 Y83.694 E.03667
G1 X106.633 Y83.281 E.01453
M204 S1000
G1 X106.966 Y83.453 F10800
M204 S800
G1 F1200
G1 X107.13 Y83.136 E.01119
G1 X107.886 Y82.331 E.03463
G1 X108.372 Y81.98 E.0188
G1 X109.84 Y81.518 E.04825
G1 X140.133 Y81.521 E.94982
G1 X140.929 Y81.681 E.02546
G1 X141.664 Y82.005 E.02519
G1 X142.53 Y82.717 E.03515
G1 X143.185 Y83.723 E.03764
G1 X143.482 Y84.852 E.0366
G1 X143.482 Y125.148 E1.26345
G1 X143.217 Y126.192 E.03377
G1 X142.87 Y126.864 E.02371
G1 X142.114 Y127.669 E.03463
G1 X141.628 Y128.02 E.0188
G1 X140.161 Y128.482 E.04822
G1 X109.852 Y128.482 E.95032
G1 X108.808 Y128.217 E.03377
G1 X108.136 Y127.87 E.02371
G1 X107.331 Y127.114 E.03463
G1 X106.98 Y126.628 E.0188
G1 X106.518 Y125.161 E.04822
G1 X106.518 Y84.852 E1.26386
G1 X106.783 Y83.808 E.03377
M73 P1 R79
M73 Q1 S79
G1 X106.939 Y83.506 E.01066
M204 S1000
G1 X107.27 Y83.68 F10800
M204 S800
G1 F1200
G1 X107.451 Y83.335 E.01222
G1 X108.146 Y82.604 E.03163
G1 X108.566 Y82.304 E.01618
G1 X109.868 Y81.895 E.04279
G1 X140.115 Y81.898 E.94837
G1 X140.796 Y82.035 E.02178
G1 X141.487 Y82.339 E.02367
G1 X142.267 Y82.988 E.03181
G1 X142.829 Y83.85 E.03226
G1 X143.105 Y84.878 E.03337
G1 X143.105 Y125.123 E1.26185
G1 X142.858 Y126.075 E.03084
G1 X142.549 Y126.665 E.02088
G1 X141.854 Y127.396 E.03163
G1 X141.434 Y127.696 E.01618
G1 X140.132 Y128.105 E.04279
G1 X109.877 Y128.105 E.94862
G1 X108.925 Y127.858 E.03084
G1 X108.335 Y127.549 E.02088
G1 X107.604 Y126.854 E.03163
G1 X107.304 Y126.434 E.01618
G1 X106.895 Y125.132 E.04279
G1 X106.895 Y84.877 E1.26217
G1 X107.142 Y83.925 E.03084
G1 X107.242 Y83.733 E.00679
M204 S1000
G1 X107.572 Y83.909 F10800
M204 S800
G1 F1200
G1 X107.771 Y83.537 E.01323
G1 X108.404 Y82.88 E.02861
G1 X108.759 Y82.63 E.01361
G1 X109.897 Y82.272 E.03741
G1 X140.095 Y82.276 E.94684
G1 X140.699 Y82.4 E.01933
G1 X141.308 Y82.672 E.02091
G1 X142.001 Y83.257 E.02844
G1 X142.495 Y84.028 E.02871
G1 X142.728 Y84.902 E.02836
G1 X142.728 Y125.098 E1.26032
G1 X142.5 Y125.956 E.02784
G1 X142.229 Y126.463 E.01803
G1 X141.596 Y127.12 E.02861
G1 X141.241 Y127.37 E.01361
G1 X140.103 Y127.728 E.03741
G1 X109.902 Y127.728 E.94693
G1 X109.044 Y127.5 E.02784
G1 X108.537 Y127.229 E.01803
G1 X107.88 Y126.596 E.02861
G1 X107.63 Y126.241 E.01361
G1 X107.272 Y125.103 E.03741
G1 X107.272 Y84.902 E1.26047
G1 X107.5 Y84.044 E.02784
M73 P1 R78
G1 X107.544 Y83.962 E.00292
M204 S1000
G1 X107.872 Y84.14 F10800
M204 S800
G1 F1200
G1 X108.088 Y83.741 E.01423
G1 X108.66 Y83.157 E.02563
G1 X108.95 Y82.956 E.01106
G1 X109.926 Y82.649 E.03208
G1 X140.075 Y82.653 E.9453
G1 X140.599 Y82.764 E.01679
G1 X141.127 Y83.004 E.01819
G1 X141.734 Y83.525 E.02508
G1 X142.139 Y84.156 E.02351
G1 X142.351 Y84.928 E.0251
G1 X142.351 Y125.072 E1.25869
G1 X142.142 Y125.834 E.02477
G1 X141.912 Y126.259 E.01515
G1 X141.34 Y126.843 E.02563
G1 X141.05 Y127.044 E.01106
G1 X140.074 Y127.351 E.03208
G1 X109.928 Y127.351 E.94521
G1 X109.166 Y127.142 E.02477
G1 X108.741 Y126.912 E.01515
G1 X108.157 Y126.34 E.02563
G1 X107.956 Y126.05 E.01106
G1 X107.649 Y125.074 E.03208
G1 X107.649 Y84.928 E1.25875
G1 X107.849 Y84.195 E.02382
M204 S1000
G1 X108.212 Y84.298 F10800
M204 S800
G1 F1200
G1 X108.404 Y83.949 E.01249
G1 X108.914 Y83.437 E.02266
G1 X109.139 Y83.283 E.00855
G1 X109.955 Y83.026 E.02682
G1 X140.053 Y83.03 E.9437
G1 X140.497 Y83.127 E.01425
G1 X140.943 Y83.334 E.01542
G1 X141.466 Y83.791 E.02178
G1 X141.785 Y84.286 E.01846
G1 X141.974 Y84.955 E.0218
G1 X141.974 Y125.045 E1.25699
G1 X141.786 Y125.709 E.02164
M73 Q1 S78
G1 X141.596 Y126.051 E.01227
G1 X141.086 Y126.563 E.02266
G1 X140.861 Y126.717 E.00855
G1 X140.045 Y126.974 E.02682
G1 X109.955 Y126.974 E.94345
G1 X109.291 Y126.786 E.02164
G1 X108.949 Y126.596 E.01227
G1 X108.437 Y126.086 E.02266
G1 X108.283 Y125.861 E.00855
G1 X108.026 Y125.045 E.02682
G1 X108.026 Y84.955 E1.25699
G1 X108.196 Y84.356 E.01952
M204 S1000
G1 X108.556 Y84.462 F10800
M204 S800
G1 F1200
G1 X108.718 Y84.16 E.01075
G1 X109.164 Y83.719 E.01967
G1 X109.325 Y83.612 E.00606
G1 X109.984 Y83.403 E.02168
G1 X140.031 Y83.407 E.9421
G1 X140.391 Y83.49 E.01158
G1 X140.756 Y83.662 E.01265
G1 X141.196 Y84.054 E.01848
G1 X141.431 Y84.42 E.01364
G1 X141.597 Y84.983 E.0184
G1 X141.597 Y125.017 E1.25524
G1 X141.431 Y125.58 E.0184
G1 X141.282 Y125.84 E.0094
G1 X140.836 Y126.281 E.01967
G1 X140.675 Y126.388 E.00606
G1 X140.016 Y126.597 E.02168
G1 X109.983 Y126.597 E.94166
G1 X109.42 Y126.431 E.0184
G1 X109.16 Y126.282 E.0094
G1 X108.719 Y125.836 E.01967
G1 X108.612 Y125.675 E.00606
G1 X108.403 Y125.016 E.02168
G1 X108.403 Y84.983 E1.25521
G1 X108.539 Y84.519 E.01516
M204 S1000
G1 X108.898 Y84.63 F10800
M204 S800
G1 F1200
G1 X108.921 Y84.555 E.00246
G1 X109.028 Y84.375 E.00657
G1 X109.411 Y84.004 E.01672
G1 X109.507 Y83.943 E.00357
G1 X110.013 Y83.78 E.01667
G1 X140.009 Y83.784 E.9405
G1 X140.247 Y83.839 E.00766
G1 X140.568 Y83.991 E.01114
G1 X140.923 Y84.315 E.01507
G1 X141.079 Y84.557 E.00903
G1 X141.22 Y85.012 E.01494
G1 X141.22 Y124.988 E1.25342
G1 X141.079 Y125.445 E.015
G1 X140.972 Y125.625 E.00657
G1 X140.589 Y125.996 E.01672
G1 X140.493 Y126.057 E.00357
G1 X139.987 Y126.22 E.01667
G1 X110.012 Y126.22 E.93985
G1 X109.555 Y126.079 E.015
G1 X109.375 Y125.972 E.00657
G1 X109.004 Y125.589 E.01672
G1 X108.943 Y125.493 E.00357
G1 X108.78 Y124.987 E.01667
G1 X108.78 Y85.012 E1.25339
G1 X108.881 Y84.687 E.01067
M204 S1000
M73 Q2 S78
G1 X109.236 Y84.804 F10800
M204 S800
M73 P2 R78
G1 F1200
G1 X109.271 Y84.698 E.0035
G1 X109.334 Y84.597 E.00373
G1 X109.653 Y84.294 E.01379
G1 X110.044 Y84.157 E.01299
G1 X139.987 Y84.161 E.93884
G1 X140.104 Y84.188 E.00376
G1 X140.378 Y84.318 E.00951
G1 X140.647 Y84.573 E.01162
G1 X140.73 Y84.7 E.00476
G1 X140.843 Y85.044 E.01135
G1 X140.843 Y124.956 E1.25141
G1 X140.729 Y125.302 E.01142
G1 X140.666 Y125.403 E.00373
G1 X140.347 Y125.706 E.01379
G1 X139.956 Y125.843 E.01299
G1 X110.044 Y125.843 E.93787
G1 X109.698 Y125.729 E.01142
G1 X109.597 Y125.666 E.00373
G1 X109.294 Y125.347 E.01379
G1 X109.157 Y124.956 E.01299
G1 X109.157 Y85.044 E1.25141
G1 X109.217 Y84.861 E.00604
M204 S1000
G1 X109.568 Y84.987 F10800
M204 S800
G1 F1200
G1 X109.632 Y84.828 E.00537
G1 X109.866 Y84.611 E.01001
G1 X110.079 Y84.534 E.0071
G1 X139.935 Y84.534 E.93611
G1 X140.185 Y84.644 E.00856
G1 X140.366 Y84.825 E.00803
G1 X140.466 Y85.079 E.00856
G1 X140.466 Y124.921 E1.24922
G1 X140.368 Y125.172 E.00845
G1 X140.134 Y125.389 E.01001
G1 X139.921 Y125.466 E.0071
G1 X110.079 Y125.466 E.93567
G1 X109.828 Y125.368 E.00845
G1 X109.611 Y125.134 E.01001
G1 X109.534 Y124.921 E.0071
G1 X109.534 Y85.079 E1.24922
G1 X109.547 Y85.043 E.0012
M204 S1000
G1 X109.911 Y85.121 F10800
M204 S800
G1 F1200
G1 X109.94 Y85.052 E.00235
G1 X110.052 Y84.94 E.00497
G1 X110.121 Y84.911 E.00235
G1 X139.879 Y84.911 E.93304
G1 X139.948 Y84.94 E.00235
G1 X140.06 Y85.052 E.00497
G1 X140.089 Y85.121 E.00235
G1 X140.089 Y124.879 E1.24658
G1 X140.06 Y124.948 E.00235
G1 X139.948 Y125.06 E.00497
G1 X139.879 Y125.089 E.00235
G1 X110.121 Y125.089 E.93304
G1 X110.052 Y125.06 E.00235
G1 X109.94 Y124.948 E.00497
G1 X109.911 Y124.879 E.00235
G1 X109.911 Y85.181 E1.2447
M204 S1000
; printing object motor_halter id:0 copy 0
;WIPE_START
G1 F8640
G1 X109.94 Y85.052 E-.03053
G1 X110.052 Y84.94 E-.03657
G1 X110.121 Y84.911 E-.01728
G1 X114.086 Y84.911 E-.91562
;WIPE_END
G1 Z.4 F720
G1 X111.164 Y86.164 F10800
G1 Z.2 F720
G1 E1 F2100
M204 S800
;TYPE:Perimeter
;WIDTH:0.419999
G1 F1200
G1 X138.836 Y86.164 E.86763
G1 X138.836 Y123.836 E1.18118
G1 X111.164 Y123.836 E.86763
G1 X111.164 Y86.224 E1.1793
M204 S1000
G1 X110.787 Y85.787 F10800
M204 S800
M73 P2 R77
G1 F1200
G1 X139.213 Y85.787 E.89128
G1 X139.213 Y124.213 E1.20482
G1 X110.787 Y124.213 E.89128
G1 X110.787 Y85.847 E1.20294
M204 S1000
G1 X110.41 Y85.41 F10800
M204 S800
;TYPE:External perimeter
G1 F1200
G1 X139.59 Y85.41 E.91492
G1 X139.59 Y124.59 E1.22846
G1 X110.41 Y124.59 E.91492
G1 X110.41 Y85.47 E1.22658
M204 S1000
M73 Q2 S77
G1 X110.791 Y85.532 F10800
;WIPE_START
G1 F8640
G1 X114.741 Y85.461 E-1
;WIPE_END
G1 Z.4 F720
G1 X137.955 Y86.277 F10800
G1 Z.2 F720
G1 E1 F2100
M204 S800
;TYPE:Solid infill
;WIDTH:0.422573
G1 F1200
G1 X138.553 Y86.875 E.0267
G1 X138.553 Y87.412 E.01695
G1 X137.588 Y86.447 E.04308
G1 X137.051 Y86.447 E.01695
G1 X138.553 Y87.949 E.06706
G1 X138.553 Y88.486 E.01695
G1 X136.514 Y86.447 E.09103
G1 X135.977 Y86.447 E.01695
G1 X138.553 Y89.023 E.115
G1 X138.553 Y89.56 E.01695
G1 X135.44 Y86.447 E.13898
G1 X134.903 Y86.447 E.01695
G1 X138.553 Y90.097 E.16295
G1 X138.553 Y90.634 E.01695
G1 X134.366 Y86.447 E.18693
G1 X133.829 Y86.447 E.01695
G1 X138.553 Y91.171 E.2109
G1 X138.553 Y91.708 E.01695
G1 X133.292 Y86.447 E.23487
G1 X132.756 Y86.447 E.01692
G1 X138.553 Y92.244 E.2588
G1 X138.553 Y92.781 E.01695
G1 X132.219 Y86.447 E.28278
G1 X131.682 Y86.447 E.01695
G1 X138.553 Y93.318 E.30675
G1 X138.553 Y93.855 E.01695
G1 X131.145 Y86.447 E.33072
G1 X130.608 Y86.447 E.01695
G1 X138.553 Y94.392 E.3547
G1 X138.553 Y94.929 E.01695
G1 X130.071 Y86.447 E.37867
G1 X129.534 Y86.447 E.01695
M73 P3 R77
M73 Q3 S77
G1 X138.553 Y95.466 E.40265
G1 X138.553 Y96.003 E.01695
G1 X128.997 Y86.447 E.42662
G1 X128.46 Y86.447 E.01695
G1 X138.553 Y96.54 E.45059
G1 X138.553 Y97.077 E.01695
G1 X127.923 Y86.447 E.47457
G1 X127.386 Y86.447 E.01695
G1 X138.553 Y97.614 E.49854
G1 X138.553 Y98.15 E.01692
G1 X126.85 Y86.447 E.52247
G1 X126.313 Y86.447 E.01695
G1 X138.553 Y98.687 E.54645
G1 X138.553 Y99.224 E.01695
G1 X125.776 Y86.447 E.57042
G1 X125.239 Y86.447 E.01695
G1 X138.553 Y99.761 E.59439
G1 X138.553 Y100.298 E.01695
G1 X124.702 Y86.447 E.61837
G1 X124.165 Y86.447 E.01695
G1 X138.553 Y100.835 E.64234
G1 X138.553 Y101.372 E.01695
G1 X123.628 Y86.447 E.66632
G1 X123.091 Y86.447 E.01695
G1 X138.553 Y101.909 E.69029
G1 X138.553 Y102.446 E.01695
G1 X122.554 Y86.447 E.71426
G1 X122.017 Y86.447 E.01695
G1 X138.553 Y102.983 E.73824
G1 X138.553 Y103.52 E.01695
G1 X121.48 Y86.447 E.76221
G1 X120.944 Y86.447 E.01692
G1 X138.553 Y104.056 E.78614
G1 X138.553 Y104.593 E.01695
G1 X120.407 Y86.447 E.81012
G1 X119.87 Y86.447 E.01695
G1 X138.553 Y105.13 E.83409
G1 X138.553 Y105.667 E.01695
G1 X119.333 Y86.447 E.85806
G1 X118.796 Y86.447 E.01695
G1 X138.553 Y106.204 E.88204
G1 X138.553 Y106.741 E.01695
G1 X118.259 Y86.447 E.90601
G1 X117.722 Y86.447 E.01695
G1 X138.553 Y107.278 E.92999
G1 X138.553 Y107.815 E.01695
G1 X117.185 Y86.447 E.95396
G1 X116.648 Y86.447 E.01695
G1 X138.553 Y108.352 E.97793
G1 X138.553 Y108.889 E.01695
G1 X116.111 Y86.447 E1.00191
G1 X115.574 Y86.447 E.01695
G1 X138.553 Y109.426 E1.02588
G1 X138.553 Y109.962 E.01692
G1 X115.038 Y86.447 E1.04981
G1 X114.501 Y86.447 E.01695
G1 X138.553 Y110.499 E1.07378
G1 X138.553 Y111.036 E.01695
G1 X113.964 Y86.447 E1.09776
G1 X113.427 Y86.447 E.01695
G1 X138.553 Y111.573 E1.12173
G1 X138.553 Y112.11 E.01695
G1 X112.89 Y86.447 E1.14571
G1 X112.353 Y86.447 E.01695
M73 P3 R76
G1 X138.553 Y112.647 E1.16968
G1 X138.553 Y113.184 E.01695
G1 X111.816 Y86.447 E1.19365
G1 X111.447 Y86.447 E.01165
G1 X111.447 Y86.615 E.0053
G1 X138.553 Y113.721 E1.21013
G1 X138.553 Y114.258 E.01695
G1 X111.447 Y87.152 E1.21013
G1 X111.447 Y87.689 E.01695
M73 P4 R76
M73 Q4 S77
G1 X138.553 Y114.795 E1.21013
G1 X138.553 Y115.332 E.01695
G1 X111.447 Y88.226 E1.21013
G1 X111.447 Y88.762 E.01692
M73 Q4 S76
G1 X138.553 Y115.868 E1.21013
G1 X138.553 Y116.405 E.01695
G1 X111.447 Y89.299 E1.21013
G1 X111.447 Y89.836 E.01695
G1 X138.553 Y116.942 E1.21013
